svg/24/logo-adobe-audition.svg

<svg width="24" height="24" viewBox="0 0 24 24" fill="currentColor" xmlns="http://www.w3.org/2000/svg"><path d="M7.60768 12.2376H9.55896C9.51575 12.0792 9.45095 11.8848 9.37895 11.6832C9.32862 11.5373 9.2818 11.3843 9.23359 11.2267C9.21284 11.1589 9.1918 11.0901 9.17014 11.0208C9.13054 10.902 9.09454 10.785 9.05854 10.668C9.02253 10.551 8.98653 10.434 8.94693 10.3152C8.86773 10.0776 8.80293 9.85443 8.73812 9.63123C8.70962 9.53622 8.6839 9.44399 8.65913 9.35517C8.62759 9.24206 8.59758 9.13445 8.56532 9.03363H8.55092C8.47891 9.36483 8.39971 9.69603 8.2917 10.0272C8.24413 10.1789 8.19656 10.3342 8.14848 10.4912C8.08013 10.7143 8.01074 10.9408 7.93889 11.1648C7.84529 11.5536 7.72288 11.9136 7.60768 12.2376Z"/><path fill-rule="evenodd" clip-rule="evenodd" d="M6.03846 3H17.9621C19.7694 3 21.2311 4.4616 21.2311 6.2688V17.7312C21.2311 19.5384 19.7694 21 17.9621 21H6.03846C4.23119 21 2.76953 19.5384 2.76953 17.7312V6.2688C2.76953 4.4616 4.23119 3 6.03846 3ZM10.0198 13.7712H7.16126L6.57804 15.5856C6.56364 15.6576 6.49883 15.7008 6.43403 15.6936H4.98677C4.90037 15.6936 4.87877 15.6504 4.90037 15.5568L7.37727 8.44323C7.39887 8.36403 7.42047 8.28483 7.45647 8.19123C7.49247 8.03283 7.52127 7.86723 7.52127 7.70163C7.51407 7.66563 7.54287 7.62243 7.58608 7.61523H9.58056C9.63096 7.61523 9.67416 7.63683 9.68136 7.68003L12.4751 15.5712C12.4967 15.6576 12.4751 15.6936 12.3959 15.6936H10.7902C10.7398 15.7008 10.6822 15.6648 10.6678 15.6072L10.0198 13.7712ZM18.3724 14.3473V9.63131C18.3724 9.62411 18.3724 9.61691 18.3796 9.60971C18.3796 9.56651 18.3292 9.53771 18.2932 9.54491H16.8243C16.7523 9.54491 16.7163 9.58091 16.7163 9.63131V14.0017C16.5723 14.1097 16.4139 14.1889 16.2339 14.2537C16.0611 14.3185 15.8883 14.3473 15.7083 14.3473C15.3627 14.3473 15.0603 14.2465 14.9162 14.0521C14.7722 13.8577 14.693 13.5913 14.693 13.2529V9.61691C14.6858 9.55931 14.6354 9.53051 14.5922 9.53771H13.1018C13.0442 9.54491 13.0154 9.59531 13.0226 9.63851V13.4545C13.0154 13.8289 13.0658 14.1961 13.1738 14.5489C13.2602 14.8297 13.4042 15.0817 13.6058 15.2977C13.7858 15.4921 14.0162 15.6361 14.261 15.7225C14.5274 15.8161 14.8082 15.8521 15.0963 15.8521C15.3843 15.8521 15.6795 15.8161 15.9531 15.7369C16.2771 15.6433 16.5795 15.4849 16.8243 15.2617C16.8243 15.3121 16.8243 15.3697 16.8387 15.4201L16.8819 15.6145C16.9035 15.6721 16.9611 15.7081 17.0259 15.7009H18.3436C18.4084 15.7009 18.4372 15.6721 18.43 15.6001C18.4228 15.5209 18.4156 15.4489 18.4012 15.3265C18.394 15.2041 18.3868 15.0601 18.3796 14.9017C18.3724 14.7361 18.3724 14.5561 18.3724 14.3473Z"/></svg>

<svg xmlns="http://www.w3.org/2000/svg" width="24" height="24" fill="currentColor" viewBox="0 0 24 24">
  <path d="M7.608 12.238h1.951a8.035 8.035 0 0 0-.18-.555c-.05-.146-.097-.299-.145-.456l-.064-.206c-.04-.119-.075-.236-.111-.353-.036-.117-.072-.234-.112-.353-.08-.237-.144-.46-.209-.684l-.079-.276a9.042 9.042 0 0 0-.094-.321h-.014c-.072.33-.151.662-.26.993l-.143.464c-.068.223-.137.45-.21.674a10.46 10.46 0 0 1-.33 1.073Z"/>
  <path fill-rule="evenodd" d="M6.038 3h11.924a3.266 3.266 0 0 1 3.27 3.269V17.73A3.266 3.266 0 0 1 17.961 21H6.038a3.266 3.266 0 0 1-3.268-3.269V6.27A3.266 3.266 0 0 1 6.038 3Zm3.982 10.771H7.16l-.583 1.815a.133.133 0 0 1-.144.108H4.987c-.087 0-.108-.044-.087-.137l2.477-7.114c.022-.079.043-.158.08-.252.035-.158.064-.324.064-.49-.007-.035.022-.079.065-.086h1.995c.05 0 .093.022.1.065l2.794 7.891c.022.087 0 .123-.08.123H10.79a.115.115 0 0 1-.122-.087l-.648-1.836Zm8.352.576V9.631c0-.007 0-.014.008-.021 0-.043-.05-.072-.087-.065h-1.469c-.072 0-.108.036-.108.086v4.37a1.806 1.806 0 0 1-.482.253 1.472 1.472 0 0 1-.526.093c-.345 0-.648-.1-.792-.295-.144-.194-.223-.46-.223-.8V9.618a.088.088 0 0 0-.1-.08h-1.491a.088.088 0 0 0-.08.102v3.816c-.007.374.044.741.152 1.094.086.28.23.533.432.749.18.194.41.338.655.425.266.093.547.13.835.13.288 0 .584-.037.857-.116.324-.094.627-.252.871-.475 0 .05 0 .108.015.158l.043.194c.021.058.08.094.144.087h1.318c.064 0 .093-.029.086-.1a9.428 9.428 0 0 0-.029-.275 32.856 32.856 0 0 1-.021-.424c-.008-.166-.008-.346-.008-.555Z" clip-rule="evenodd"/>
</svg>
